X:1
T:Oculi Omnium
T:Oliver Hayes
T:Oculi Omnium
C:Oliver Hayes
%%score [ 1 2 3 4 ]
L:1/8
Q:1/4=180
M:4/2
K:C
V:1 treble nm="Soprano"
V:2 treble nm="Alto"
V:3 treble-8 nm="Tenor"
V:4 bass nm="Bass"
V:1
 z16 | z16 | z16 | z16 | z16 | z16 | z16 | G8 A4 B4 | c8 d4 e4 | d8 g4 f4 | e8 d4 c4 | B8 A8 | %12
w: |||||||O- cu- li|om- * ni-|um in _|_ te _|spe- rant|
 G4 A4 B8 | c4 d4 e4 f4 | g4 G4 A6 A2 | A4 B2 c2 d8 | d8 G4 A4 | B8 e2 d2 c2 B2 | A8 G8 | z8 G8 | %20
w: Do- * *|* * mi- ne,|in te spe- rant|Do- * * mi-|ne, in _|te spe- * * *|* rant,|in|
 A8 B8 | c8 d8 | D8 G4 F4 | E8 G8 | c8 c4 d4- | d4 d4 e8 | f4 e4 d8 | c8 z4 f4- | f8 c6 d2 | %29
w: te spe-|rant Do-|mi- ne, _|_ et|tu das es-|* cam il-|lo- * *|rum, et|_ tu das|
 e2 d2 c2 B2 A8 | e4 c8 e4- | e8 z8 | c6 d2 e4 d4- | d2 e2 f4 g2 f2 e2 d2 | c4 G4 d8- | d8 d4 e4 | %36
w: es- * * * cam|il- lo- rum,|_|et tu das es-|* cam il- lo- * * *|* * rum|_ in _|
 c8 c8 | B8 A4 A4 | A4 B4 c8 | B6 c2 d4 e4 | f8 e8 | c8 A8 | z8 A8 | e6 d2 c4 B2 A2 | G6 A2 B8 | %45
w: tem- po-|re op- por-|tu- no, in|tem- * po- re|op- por-|tu- no,|in|tem- po- re op- por-|tu- * no,|
 c4 B4 A4 G4 | A16 | G16 || c6 d2 e4 c4 | f4 e4 d8 | e8 d8 | e4 d4 e4 f4 | g4 f2 e2 f8 | %53
w: op- * * por-|tu-|no.|A- pe- ris tu|ma- num tu-|am, _|ma- * * num|tu- * * am,|
 e4 d4 c4 e4 | d4 c4 B4 A4 | G4 A4 B4 c4 | d8 e4 d4 | c8 d8 | e8 z8 | e6 d2 c4 B2 A2 | G6 A2 B8 | %61
w: a- pe- ris tu|ma- num tu- *|am, _ _ _|tu ma- num|tu- *|am,|et im- ples om- ne|a- ni- mal,|
 c8 c6 d2 | e4 d4 c8 | c4 d4 e8 | e8 d4 d4 | c8 c8 | c4 f4 e8 | z8 c4 A4 | G4 A4 B8 | c16 | %70
w: et im- ples|om- ne a-|ni- * mal,|et im- ples|om- ne|a- ni- mal,|be- ne-|di- cti- o-|ne,|
 G8 A4 c4 | d4 e4 f8 | d16 | e4 d4 c6 B2 | A8 G8 | A8 (3A4 B4 c4 | d8 c4 B4 | A8 B4 c4 | d8 A8 | %79
w: be- ne- *|di- cti- o-|ne,|be- ne- di- cti-|o- ne,|be- ne- * *|di- cti- *|o- * *||
 c16 |] %80
w: ne.|
V:2
 z16 | z16 | z16 | z16 | z16 | C8 D4 E4 | F8 G4 A4 | G8 F8 | G12 C4 | D16 | C8 A,8 | G,4 G4 F4 E4 | %12
w: |||||O- cu- li|om- * ni-|um, o-|* ni-|um|in te|spe- * * *|
 D16 | E4 D4 C8 | D4 E4 F8 | F8 F8 | z8 C8 | D8 E8 | F8 G8 | G,8 C4 B,4 | A,4 C4 D8 | C8 A,8- | %22
w: rant,|in _ te|spe- rant Do-|mi- ne,|in|te spe-|rant Do-|mi- ne, in|_ te spe-|rant Do-|
 A,8 B,8 | C4 D4 E8 | F4 F4 F4 D4- | D4 D4 G8 | A4 G4 B4 A4 | G12 A4 | A8 G8 | z8 F6 G2 | %30
w: * mi-|* * ne,|et tu das es-|* cam il-|lo- * * *|rum, il-|lo- rum,|et tu|
 A4 G6 A2 B4 | c2 B2 A2 G2 F4 C4 | G12 F2 E2 | D4 C4 E8 | E6 F2 G8 | A8 F8 | A4 G2 F2 E8 | %37
w: das es- cam il-|lo- * * * * *|rum, il- *|lo- * rum,|il- * lo-|* rum|in _ _ tem-|
 G4 F4 E6 D2 | C8 E8- | E8 z8 | D8 A6 G2 | F4 E2 D2 C6 D2 | E8 F8 | E8 F4 G4 | G8 G8 | F4 G4 C8 | %46
w: po- re op- por-|tu- no,|_|in tem- po-|re op- por- tu- *|no, in|tem- * po-|re op-|* * por-|
 F16 | E16 || z16 | z16 | G6 A2 B4 G4 | c4 B4 A8 | B8 A8 | G12 A4 | A8 G4 F4 | E8 G8 | G8 G8 | %57
w: tu-|no.|||A- pe- ris tu|ma- num tu-|am, _|a- pe-|ris tu _|ma- num|tu- am,|
 A8 D8 | C8 G8 | G4 G4 G8 | E8 z8 | A6 G2 F4 E2 D2 | C6 D2 E8 | G8 G6 A2 | B4 A4 G8 | F4 G4 A8 | %66
w: a- pe-|ris tu|ma- num tu-|am,|et im- ples om- ne|a- ni- mal,|et im- ples|om- ne a-|ni- * mal,|
 A8 G2 F2 E2 D2 | C4 B,4 A,8 | B,4 C4 D8 | z8 F4 E4 | C4 D4 E8 | F16 | G8 (3D4 E4 F4 | G8 A8 | %74
w: et im- * * *|ples om- ne|a- ni- mal|be- ne-|di- cti- o-|ne,|be- ne- * *|di- cti-|
 F8 E4 D4 | C8 F8 | D8 F4 D4 | F8 G8 | A8 F8 | G16 |] %80
w: o- * *|ne, be-|ne- di- cti-|o- *||ne.|
V:3
 z16 | z16 | G8 A4 B4 | c8 d4 e4 | d8 c4 B2 A2 | G4 A4 B4 c4- | c4 d4 e8 | c12 d4 | e8 d4 c4 | %9
w: ||O- cu- li|om- * ni-|um, o- * *|* * * cu-|* * li|om- *|* ni- *|
 G8 B4 A4 | G4 g4 f8 | g2 f2 e2 d2 c8 | B8 z8 | G8 A8 | B8 c8 | d8 D8 | G4 F4 E8 | B8 c8 | d8 d8 | %19
w: um, o- *|* cu- li|om- * * * ni-|um|in te|spe- rant|Do- mi-|ne, _ in|te spe-|rant Do-|
 c4 d4 e6 d2 | c8 B4 A4 | G4 g4 f8 | f4 e4 d8 | e4 d4 c4 B4 | A8 A4 B4- | B2 c2 d4 c8 | c8 z8 | %27
w: mi- * ne, in|te spe- *|* rant Do-|* mi- ne,|et _ _ _|tu das es-|* cam il- lo-|rum,|
 c6 d2 e4 d4- | d2 e2 f4 g2 f2 e2 d2 | c4 G4 d8 | c8 G8- | G8 A4 G4 | c8 c4 A4- | A8 G8 | %34
w: et tu das es-|* cam il- lo- * * *|* * rum,|il- lo-|* rum, et|tu das es-|* cam|
 G6 A2 B4 A2 G2 | F4 E4 D8 | F4 G8 G4 | z8 A8 | e6 d2 c4 B2 A2 | G6 A2 B8 | A8 c8- | c6 B2 A8 | %42
w: il- * lo- * *|* * rum,|il- lo- rum|in|tem- po- re op- por-|tu- * no,|in tem-|* po- re|
 c4 B4 A8 | c12 d4 | e8 d8 | c4 d2 e2 f4 g4 | c16 | c16 || z16 | z16 | z16 | z16 | z16 | %53
w: op- * por-|tu- no,|op- *|por- * * * *|tu-|no.||||||
 c6 d2 e4 c4 | f4 e4 d8 | e8 d8 | B8 c4 d4 | e4 f4 g4 f4 | e8 c8 | c4 d4 e8 | c4 e4 d4 e4 | %61
w: A- pe- ris tu|ma- num tu-|am, _|a- pe- ris|tu _ ma- num|tu- am,|a- pe- ris|tu _ ma- num|
 f8 c8- | c8 z8 | e6 d2 c4 B2 A2 | G6 A2 B8 | c8 c6 d2 | e4 d4 c8 | A4 B4 c8 | d4 c4 B8 | A8 c8 | %70
w: tu- am,|_|et im- ples om- ne|a- ni- mal,|et im- ples|om- ne a-|ni- * mal,|et im- ples|om- ne|
 e4 d4 c8 | z8 c4 A4 | G4 A4 B8 | c16 | c4 A4 G6 G2 | A4 B4 c8 | A12 B4 | c4 d4 e8 | f16 | e16 |] %80
w: a- ni- mal|be- ne-|di- cti- o-|ne,|be- ne- di- cti-|o- * ne,|be- ne-|di- * cti-|o-|ne.|
V:4
 C,8 D,4 E,4 | F,8 G,4 A,4 | G,8 F,8 | E,8 D,4 C,4 | B,,8 C,4 D,4 | E,8 D,4 C,4 | A,,8 C,8 | %7
w: O- cu- li|om- * ni-|um, o-|cu- * li|om- * *|ni- * *|um, o-|
 E,8 F,8 | C8 B,4 A,4 | B,8 z8 | C,8 D,8 | E,8 F,8 | G,8 G,,8 | C,4 B,,4 A,,4 A,4 | G,8 F,4 E,4 | %15
w: * cu-|li om- ni-|um|in te|spe- rant|Do- mi-|ne, _ _ in|te spe- rant|
 D,8 A,8 | B,4 A,4 G,8 | G,4 F,4 E,8 | D,4 C,4 B,,4 C,2 D,2 | E,4 D,4 C,4 E,4 | F,8 G,4 F,4 | %21
w: Do- mi-|ne, _ in|te _ spe-|rant _ Do- * *|* mi- ne, in|te spe- *|
 E,8 D,4 E,4 | F,8 G,8 | C,8 z8 | F,6 G,2 A,4 G,4- | G,2 A,2 B,4 C2 B,2 A,2 G,2 | F,4 C,4 G,8 | %27
w: rant Do- *|* mi-|ne,|et tu das es-|* cam il- lo- * * *|* * rum,|
 C,8 C,4 D,4 | D,8 E,8 | C,8 D,8 | A,,2 B,,2 C,2 D,2 E,8 | C,8 D,4 E,4 | E,12 F,4- | F,8 C,8- | %34
w: et tu das|es- cam|il- *|lo- * * * *|* rum, il-|lo- *|* rum|
 C,8 z8 | D,8 A,6 G,2 | F,4 E,2 D,2 C,6 D,2 | E,8 C,4 A,,4 | A,8 A,8 | E,8 G,8 | %40
w: _|in tem- po-|re op- por- tu- *|no, in _|tem- po-|re op-|
 D,2 E,2 F,2 G,2 A,8- | A,4 G,4 F,8 | C,8 D,2 E,2 F,2 G,2 | A,12 G,4 | C,8 G,4 B,4 | %45
w: por- * * * tu-|* * no,|in _ _ _ _|tem- po-|re op- *|
 A,4 G,4 F,4 E,4 | F,8 F,,8 | C,16 || z16 | z16 | z16 | z16 | z16 | z16 | z16 | z8 G,6 A,2 | %56
w: por- * * *|tu- *|no.||||||||A- pe-|
 B,4 G,4 C4 B,4 | A,8 B,8 | A,4 G,2 F,2 E,4 D,4 | C,8 E,8 | C,8 G,8 | F,4 G,4 A,8 | A,8 G,6 F,2 | %63
w: ris tu ma- num|tu- am,|a- * * * pe-|ris tu|ma- num|tu- * am,|ma- * num|
 E,8 E,8- | E,8 z8 | A,6 G,2 F,4 E,2 D,2 | C,6 D,2 E,8 | F,8 F,6 G,2 | B,4 A,4 G,8 | F,4 G,4 A,8 | %70
w: tu- am,|_|et im- ples om- ne|a- ni- mal,|et im- ples|om- ne a-|ni- * mal|
 C4 B,4 A,4 G,4 | F,8 A,8 | B,4 A,4 G,8 | z8 F,4 E,4 | C,4 D,4 E,8 | F,16 | F,8 A,4 G,4 | F,8 E,8 | %78
w: be- ne- di- cti-|o- *|* * ne,|be- ne-|di- cti- o-|ne,|be- ne- *|di- cti-|
 D,16 | C,16 |] %80
w: o-|ne.|

